build/system/CalendarUpdateSolid.svg

<svg xmlns="http://www.w3.org/2000/svg" fill="none" viewBox="0 0 24 24" focusable="false"><path d="M0 0H24V24H0z"/><path fill="#74767B" fill-rule="evenodd" d="M8.13998 1.94995C8.49897 1.94995 8.78998 2.24097 8.78998 2.59995L8.78998 3.98996L11.35 3.98996L11.35 2.59995C11.35 2.24097 11.641 1.94995 12 1.94995C12.359 1.94995 12.65 2.24097 12.65 2.59995L12.65 3.98996L15.2 3.98996L15.2 2.59995C15.2 2.24097 15.491 1.94995 15.85 1.94995C16.209 1.94995 16.5 2.24097 16.5 2.59995L16.5 3.98996L17 3.98996C18.65 3.98996 20 5.32996 20 6.98996L20 8.64996C20 9.03996 19.69 9.34996 19.3 9.34996L4.7 9.34996C4.31 9.34996 4 9.03996 4 8.64996L4 6.98996C4 5.32996 5.34 3.98996 7 3.98996L7.48998 3.98996L7.48998 2.59995C7.48998 2.24097 7.781 1.94995 8.13998 1.94995ZM4.7 10.6274L19.3 10.6274C19.68 10.6274 20 10.9374 20 11.3274L20 12.3186C20 12.5267 19.7929 12.672 19.5927 12.6149C19.0625 12.4638 18.5028 12.383 17.9242 12.383C14.5686 12.383 11.8484 15.1032 11.8484 18.4588C11.8484 18.8563 11.8866 19.245 11.9595 19.6212C11.9968 19.8141 11.8536 20 11.6571 20L7 20C5.34315 20 4 18.6569 4 17L4 11.3274C4 10.9374 4.31 10.6274 4.7 10.6274ZM16.1128 19.0975L15.6123 18.6059C15.8244 19.8016 16.8688 20.7095 18.1254 20.7095C19.535 20.7095 20.6778 19.5668 20.6778 18.1571C20.6778 16.7475 19.535 15.6047 18.1254 15.6047C17.8309 15.6047 17.5494 15.6543 17.288 15.7451C16.9488 15.8628 16.5785 15.6833 16.4608 15.3441C16.3431 15.005 16.5226 14.6347 16.8617 14.5169C17.2584 14.3792 17.6839 14.3047 18.1254 14.3047C20.253 14.3047 21.9778 16.0295 21.9778 18.1571C21.9778 20.2847 20.253 22.0095 18.1254 22.0095C16.1829 22.0095 14.5762 20.5719 14.3113 18.7025L13.9038 19.1173C13.6523 19.3734 13.2407 19.3771 12.9846 19.1256C12.7285 18.874 12.7248 18.4625 12.9764 18.2064L14.5265 16.6283C14.778 16.3722 15.1895 16.3685 15.4457 16.62L17.0237 18.1701C17.2799 18.4217 17.2835 18.8332 17.032 19.0893C16.7804 19.3454 16.3689 19.3491 16.1128 19.0975Z"/></svg>

<svg xmlns="http://www.w3.org/2000/svg" fill="none" viewBox="0 0 24 24" focusable="false"><path fill="#74767B" fill-rule="evenodd" d="M8.79 2.59c0-.35-.3-.65-.65-.65-.36 0-.66.3-.66.65v1.39H7c-1.67 0-3 1.34-3 3v1.66c0 .39.31.7.7.7h14.59c.39 0 .71-.31.71-.7V6.98c0-1.66-1.36-3-3-3h-.5V2.59c0-.35-.3-.65-.65-.65-.36 0-.65.3-.65.65v1.39h-2.56V2.59c0-.35-.29-.65-.64-.65-.36 0-.65.3-.65.65v1.39H8.79zM4.7 10.62h14.59c.39 0 .71.31.71.7v.99c0 .21-.21.36-.41.3-.53-.15-1.09-.23-1.67-.23-3.36 0-6.08 2.72-6.08 6.07 0 .4.04.79.11 1.17.04.19-.1.38-.3.38H7c-1.66 0-3-1.35-3-3v-5.68c0-.39.31-.7.7-.7m11.41 8.47-.5-.49c.21 1.2 1.25 2.1 2.51 2.1 1.41 0 2.55-1.14 2.55-2.55s-1.14-2.55-2.55-2.55c-.29 0-.58.05-.84.14a.636.636 0 0 1-.82-.4.65.65 0 0 1 .4-.83c.39-.14.82-.21 1.26-.21 2.13 0 3.85 1.72 3.85 3.85S20.25 22 18.12 22a3.84 3.84 0 0 1-3.81-3.3l-.41.41c-.25.26-.66.26-.92.01a.65.65 0 0 1-.01-.92l1.55-1.58c.25-.25.66-.26.92 0l1.58 1.55a.646.646 0 1 1-.91.92"/></svg>
